img/vk.svg

<svg viewBox="0 0 34 23" fill="none" xmlns="http://www.w3.org/2000/svg">
    <g clip-path="url(#clip0_805:267)">
        <path d="M33.3195 18.3994C33.2809 18.3155 33.2448 18.2457 33.2113 18.1899C32.657 17.1849 31.5981 15.9512 30.0349 14.4886L30.0019 14.4551L29.9853 14.4387L29.9685 14.4219H29.9518C29.2423 13.7408 28.7931 13.2828 28.6049 13.0484C28.2607 12.6018 28.1836 12.1497 28.3718 11.6916C28.5046 11.3455 29.004 10.6147 29.8684 9.49803C30.3231 8.90621 30.6832 8.43192 30.9493 8.07457C32.8676 5.50654 33.6991 3.86553 33.4438 3.15092L33.3449 2.98391C33.2783 2.88338 33.1064 2.7914 32.8294 2.70752C32.5521 2.62382 32.1974 2.60998 31.765 2.66576L26.9756 2.69908C26.8981 2.67139 26.7871 2.67397 26.643 2.70752C26.4988 2.74108 26.4266 2.7579 26.4266 2.7579L26.3431 2.79985L26.2771 2.85024C26.2217 2.88355 26.1607 2.94215 26.0941 3.02591C26.0277 3.10938 25.9725 3.20735 25.9281 3.31896C25.4067 4.6699 24.8138 5.92594 24.1486 7.08702C23.7383 7.77935 23.3616 8.37936 23.0176 8.88739C22.6739 9.39525 22.3855 9.76942 22.153 10.0093C21.9199 10.2494 21.7098 10.4417 21.5208 10.587C21.3324 10.7324 21.1884 10.7938 21.0887 10.7713C20.9889 10.7488 20.8949 10.7266 20.8058 10.7043C20.6506 10.6037 20.5259 10.467 20.4319 10.2939C20.3372 10.1209 20.2737 9.9031 20.2405 9.64072C20.2073 9.37817 20.1878 9.15235 20.1822 8.96247C20.177 8.77284 20.1793 8.50459 20.1907 8.15852C20.2022 7.81226 20.2073 7.57797 20.2073 7.45515C20.2073 7.03083 20.2156 6.57031 20.232 6.07347C20.2488 5.57663 20.2623 5.183 20.2737 4.89298C20.285 4.60267 20.2903 4.29556 20.2903 3.97177C20.2903 3.64798 20.2706 3.39404 20.232 3.20975C20.1939 3.02567 20.1353 2.84701 20.0581 2.6738C19.9801 2.50075 19.8663 2.36689 19.7171 2.27188C19.5673 2.17696 19.3813 2.10164 19.1599 2.04569C18.5723 1.91177 17.8239 1.83933 16.9146 1.82807C14.8526 1.80578 13.5277 1.93987 12.9401 2.23017C12.7072 2.35282 12.4966 2.52041 12.3082 2.7324C12.1086 2.97811 12.0808 3.11219 12.2249 3.13425C12.8902 3.23462 13.3611 3.47471 13.6383 3.85427L13.7382 4.05543C13.8159 4.20053 13.8935 4.45745 13.9712 4.82582C14.0487 5.19419 14.0987 5.60169 14.1208 6.04807C14.1761 6.86322 14.1761 7.56103 14.1208 8.14149C14.0652 8.72221 14.0128 9.17428 13.9628 9.49808C13.9128 9.82187 13.838 10.0842 13.7382 10.2851C13.6383 10.4861 13.5719 10.6089 13.5386 10.6535C13.5053 10.6981 13.4776 10.7262 13.4556 10.7372C13.3114 10.7928 13.1616 10.8212 13.0065 10.8212C12.8511 10.8212 12.6628 10.7429 12.4411 10.5865C12.2194 10.4301 11.9894 10.2154 11.751 9.94176C11.5126 9.66814 11.2437 9.28573 10.9443 8.79454C10.6451 8.30333 10.3346 7.7228 10.0131 7.05293L9.74707 6.56713C9.58077 6.2546 9.35361 5.79954 9.06534 5.20234C8.77691 4.60491 8.52195 4.02702 8.30031 3.46877C8.21172 3.23432 8.07863 3.05583 7.90127 2.93301L7.81805 2.88262C7.7627 2.83804 7.67387 2.7907 7.55203 2.74024C7.42999 2.68987 7.30266 2.65374 7.1695 2.63149L2.61287 2.66481C2.14723 2.66481 1.83131 2.77105 1.66495 2.98321L1.59838 3.08357C1.56512 3.13947 1.54834 3.22876 1.54834 3.35163C1.54834 3.47447 1.5816 3.62522 1.64818 3.80371C2.31336 5.37808 3.03675 6.89644 3.8183 8.35899C4.59986 9.82158 5.27903 10.9997 5.85538 11.8924C6.43185 12.7857 7.01946 13.6288 7.61819 14.4212C8.2169 15.214 8.61322 15.722 8.80714 15.9452C9.00127 16.1688 9.15376 16.336 9.2646 16.4476L9.68043 16.8494C9.94651 17.1175 10.3372 17.4384 10.8528 17.8124C11.3684 18.1865 11.9393 18.5548 12.5657 18.918C13.1922 19.2807 13.9211 19.5765 14.7527 19.8054C15.5842 20.0343 16.3934 20.1263 17.1807 20.0819H19.0932C19.4809 20.0481 19.7748 19.9255 19.9745 19.7134L20.0408 19.6295C20.0853 19.5628 20.127 19.4594 20.1653 19.3199C20.2042 19.1805 20.2236 19.0268 20.2236 18.8595C20.2122 18.3794 20.2485 17.9468 20.3315 17.5618C20.4145 17.1767 20.5088 16.8864 20.6145 16.6909C20.7201 16.4956 20.8393 16.3308 20.9719 16.1971C21.1047 16.0632 21.1994 15.9821 21.2552 15.9542C21.3104 15.9261 21.3544 15.907 21.3876 15.8956C21.6538 15.8063 21.967 15.8927 22.3274 16.1554C22.6879 16.4177 23.026 16.7417 23.3421 17.1267C23.6582 17.5122 24.0378 17.9446 24.4811 18.4245C24.925 18.9047 25.3129 19.2616 25.6452 19.4963L25.9776 19.6974C26.1998 19.8313 26.4881 19.9543 26.8428 20.0659C27.1972 20.1774 27.5074 20.2054 27.7738 20.1496L32.0309 20.0828C32.4522 20.0828 32.7796 20.0125 33.012 19.8731C33.245 19.7336 33.3834 19.5799 33.4279 19.4127C33.4725 19.2454 33.4748 19.0553 33.4364 18.8429C33.3969 18.6311 33.3581 18.483 33.3195 18.3994Z" fill="#FEFEFE" />
    </g>
    <defs>
        <clipPath id="clip0_805:267">
            <rect width="33.8791" height="22.1765" fill="white" transform="translate(0 0.412598)" />
        </clipPath>
    </defs>
</svg>

<svg width="34" height="23" fill="none" xmlns="http://www.w3.org/2000/svg"><g clip-path="url(#a)"><path d="M33.32 18.4a2.176 2.176 0 0 0-.108-.21c-.555-1.005-1.613-2.239-3.177-3.702l-.033-.033-.016-.016-.017-.017h-.017c-.71-.681-1.158-1.14-1.347-1.374-.344-.446-.42-.898-.233-1.357.133-.346.633-1.076 1.497-2.193.455-.592.815-1.066 1.08-1.424 1.919-2.568 2.75-4.209 2.495-4.923l-.099-.167c-.066-.1-.238-.193-.515-.277-.277-.083-.632-.097-1.064-.041l-4.79.033c-.077-.028-.188-.025-.333.008l-.216.05-.083.043-.066.05a.742.742 0 0 0-.183.176 1.15 1.15 0 0 0-.166.293 27.448 27.448 0 0 1-1.78 3.768c-.41.692-.787 1.292-1.131 1.8s-.632.882-.864 1.122a6.04 6.04 0 0 1-.633.578c-.188.145-.332.207-.432.184a12.51 12.51 0 0 1-.283-.067 1.11 1.11 0 0 1-.374-.41 1.84 1.84 0 0 1-.191-.653 7.215 7.215 0 0 1-.058-.679c-.006-.19-.003-.457.008-.804.012-.346.017-.58.017-.703 0-.424.008-.885.025-1.382.016-.496.03-.89.041-1.18.011-.29.017-.598.017-.921 0-.324-.02-.578-.058-.762a2.612 2.612 0 0 0-.175-.536.902.902 0 0 0-.34-.402 1.917 1.917 0 0 0-.558-.226c-.587-.134-1.336-.207-2.245-.218-2.062-.022-3.387.112-3.974.402a2.24 2.24 0 0 0-.632.502c-.2.246-.228.38-.084.402.666.1 1.137.34 1.414.72l.1.201c.077.145.155.402.233.77.077.37.127.777.15 1.223.055.815.055 1.513 0 2.093a25.474 25.474 0 0 1-.159 1.357 2.73 2.73 0 0 1-.224.787c-.1.201-.167.324-.2.368a.287.287 0 0 1-.083.084 1.239 1.239 0 0 1-.449.084c-.155 0-.344-.078-.565-.235a3.996 3.996 0 0 1-.69-.644 8.508 8.508 0 0 1-.807-1.148c-.3-.49-.61-1.071-.931-1.741l-.266-.486a41.905 41.905 0 0 1-.682-1.365A26.426 26.426 0 0 1 8.3 3.47a1.103 1.103 0 0 0-.4-.536l-.082-.05a1.137 1.137 0 0 0-.266-.143 1.757 1.757 0 0 0-.383-.109l-4.557.034c-.465 0-.781.106-.948.318l-.066.1a.545.545 0 0 0-.05.269c0 .122.033.273.1.452a55.438 55.438 0 0 0 2.17 4.555c.781 1.462 1.46 2.64 2.037 3.533a41.7 41.7 0 0 0 1.763 2.53c.598.792.995 1.3 1.189 1.523.194.224.346.39.457.503l.416.401c.266.268.657.59 1.172.963a20 20 0 0 0 1.713 1.106c.627.363 1.356.658 2.187.887.832.23 1.64.321 2.428.277h1.913c.387-.034.681-.157.881-.369l.066-.084a1.11 1.11 0 0 0 .125-.31c.039-.139.058-.292.058-.46-.011-.48.025-.912.108-1.297.083-.385.177-.676.283-.871a2.14 2.14 0 0 1 .357-.494c.133-.134.228-.215.284-.243.055-.028.099-.047.132-.059.266-.089.58-.002.94.26.36.263.698.587 1.015.972.316.385.695.818 1.139 1.297.443.48.831.838 1.164 1.072l.332.201c.222.134.51.257.865.369.355.111.665.14.931.084l4.257-.067c.422 0 .75-.07.982-.21.233-.14.37-.293.415-.46.045-.168.047-.358.009-.57a2.12 2.12 0 0 0-.117-.444Z" fill="#000"/></g><defs><clipPath id="a"><path fill="#fff" transform="translate(0 .413)" d="M0 0h33.879v22.177H0z"/></clipPath></defs></svg>
